X:1
T:Title
%%score ( 1 2 ) { 3 | 4 }
L:1/8
M:4/4
K:G
V:1 treble nm="Bright Piano"
V:2 treble 
V:3 bass nm="Bright Piano"
V:4 bass 
V:1
 z4 z2[Q:1/4=100] D2 | [B,G]3 [CA] [B,B]2 [DG]2 | E4 [EA]4 | [DG]2 [DF]2 z2 D2 | %4
 E2 [DF]2 [DG]2 [Ec]2 | [DB]4 A2- [CA]2 | [B,G]4 z2 D2 | [B,G]3 [CA] [B,B]2 [DG]2 | E4 [EA]4 | %9
 [DG]2 [DF]2 z2 [DA]2 | [DB]2 [G^c]2 [Fd]2 [EG]2 | [DF]4 E2- [^CE]2 | D4 z2 D2 | %13
 [Dc]3 [DB] [DA]2 [FA]2 | [DB]4 [Gc]4 | [Gd]4 z2 [B,D]2 | [CE]2 [DF]2 [DG]2 [Ec]2 | %17
 [DB]4 A2- [CA]2 |[M:3/4] [B,G]4 z2 |] %19
V:2
 x8 | x8 | x8 | x8 | x8 | z4 D2 z2 | x8 | x8 | x8 | x8 | x8 | z4 D2 z2 | x8 | x8 | x8 | x8 | x8 | %17
 z4 D2 z2 |[M:3/4] x6 |] %19
V:3
 z4 z2 D,2 | D,3 D, D,2 B,2 | G,4 C4 | B,2 A,2 z2 G,2 | G,2 C2 B,2 A,2 | A,2 G,2 F,4 | G,4 z2 D,2 | %7
 D,3 D, D,2 B,2 | G,4 C4 | B,2 A,2 z2 F,2 | G,2 A,2 A,2 B,2 | A,4 G,4 | F,4 z2 D,2 | %13
 F,3 G, F,2 D2 | D4 C4 | B,4 z2 G,2 | G,2 C2 B,2 A,2 | A,2 G,2 F,4 |[M:3/4] G,4 z2 |] %19
V:4
 z8 | G,,3 F,, G,,2 G,,2 | C,4 C,4 | D,2 D,2 z2 B,,2 | C,2 A,,2 B,,2 C,2 | D,4 D,4 | G,,4 z4 | %7
 G,,3 F,, G,,2 G,,2 | C,4 C,4 | D,2 D,2 z2 D,2 | z2 E,2 D,2 G,2 | z4 A,,4 | D,4 z4 | %13
 A,,3 G,, D,2 D,2 | G,4 E,4 | B,,4 z4 | C,2 A,,2 G,,2 C,2 | D,4 D,4 |[M:3/4] z6 |] %19

